plasma/desktoptheme/Monochrome/icons/akonadi.svg

<svg width="32" height="32" version="1.1" xmlns="http://www.w3.org/2000/svg">
 <g id="22-22-akonadi" transform="translate(39.494834,7.7037887)">
  <path d="m0 2.5e-7h22v22h-22z" style="opacity:.00100002"/>
  <path d="m8.0019531 3.0000197c-2.2068991 1.2739076-3.5714628 3.4317524-3.9121093 5.7636719 0.2413848-0.1145249 0.4906622-0.2168418 0.7460937-0.2988281 1.1019519-0.3536957 2.3311937-0.459726 3.6171875-0.4648438 1.780616-0.0070863 3.682093 0.2250012 5.466797 0.5664062-1.389096-2.9981719-3.395849-5.5780579-5.9179689-5.5664062zm4.2402349 1.1171875c1.042747 1.1188808 1.891926 2.5313686 2.585937 4.0292969l0.318359 0.6875c0.963016 0.2195514 1.886754 0.4562651 2.691407 0.7089844-0.592699-2.7758085-2.802943-4.918935-5.595703-5.4257813zm-3.7851568 4.8828125c-2.4581357 0.0097826-4.5647186 0.4379741-5.4570312 2.0000003 0 4.418 3.5817 8 8 8 4.418 0 8-3.582 8-8-2.340914-0.915391-6.840288-2.0147358-10.542969-2.0000003z" style="fill:#aaaaac"/>
 </g>
 <g id="akonadi">
  <rect width="32" height="32" style="opacity:.00100002"/>
  <g>
   <path d="M 29.1,15.8 A 12.75,12.75 0 0 1 16.35,28.55 12.75,12.75 0 0 1 3.6,15.8 12.75,12.75 0 0 1 16.35,3.05 12.75,12.75 0 0 1 29.1,15.8 Z" style="fill:#cddff0"/>
   <path d="m16.35 3.05a12.75 12.75 0 0 0-12.75 12.75 12.75 12.75 0 0 0 0.0161 0.435 12.75 12.75 0 0 1 12.734-12.435 12.75 12.75 0 0 1 12.734 12.315 12.75 12.75 0 0 0 0.016-0.315 12.75 12.75 0 0 0-12.75-12.75z" style="fill:#ffffff;opacity:.2"/>
   <path d="m24.227 27.588c-6.815 3.936-15.53 1.6-19.466-5.215-3.9345-6.816-1.5993-15.531 5.2164-19.466 8.0306-0.0371 13.13 17.316 14.25 24.681z" style="fill:#62b4e7"/>
   <path d="m30.6 15.75c0 7.87-6.38 14.25-14.25 14.25-7.8701 0-14.25-6.38-14.25-14.25 3.9835-6.9734 21.562-2.713 28.5 0z" style="fill:#357dc5"/>
   <path d="m2.1469 16.678c-0.0148 0.025-0.0325 0.047-0.0469 0.072 0 7.87 6.3799 14.25 14.25 14.25s14.25-6.3799 14.25-14.25c-0.01527-6e-3 -0.0354-0.01159-0.05078-0.01758-0.507 7.41-6.661 13.268-14.199 13.268-7.5569 0-13.723-5.887-14.203-13.322z" style="opacity:.2"/>
  </g>
 </g>
</svg>

<svg xmlns="http://www.w3.org/2000/svg" width="32" height="32" version="1.1">
 <g id="22-22-akonadi" transform="translate(39.494834,7.7037887)">
  <path style="opacity:0.001" d="M 0,2.5e-7 H 22 V 22 H 0 Z"/>
  <path style="fill:#aaaaac" d="M 8.0019531,3.0000197 C 5.795054,4.2739273 4.4304903,6.4317721 4.0898438,8.7636916 4.3312286,8.6491667 4.580506,8.5468498 4.8359375,8.4648635 5.9378894,8.1111678 7.1671312,8.0051375 8.453125,8.0000197 10.233741,7.9929334 12.135218,8.2250209 13.919922,8.5664259 12.530826,5.568254 10.524073,2.988368 8.0019531,3.0000197 Z m 4.2402349,1.1171875 c 1.042747,1.1188808 1.891926,2.5313686 2.585937,4.0292969 l 0.318359,0.6875 C 16.1095,9.0535555 17.033238,9.2902692 17.837891,9.5429885 17.245192,6.76718 15.034948,4.6240535 12.242188,4.1172072 Z M 8.4570312,9.0000197 C 5.9988955,9.0098023 3.8923126,9.4379938 3,11.00002 c 0,4.418 3.5817,8 8,8 4.418,0 8,-3.582 8,-8 C 16.659086,10.084629 12.159712,8.9852842 8.4570312,9.0000197 Z"/>
 </g>
 <g id="akonadi">
  <rect width="32" height="32" x="0" y="0" style="opacity:0.001"/>
  <path d="M 29.1,15.8 A 12.75,12.75 0 0 1 16.35,28.55 12.75,12.75 0 0 1 3.6,15.8 12.75,12.75 0 0 1 16.35,3.05 12.75,12.75 0 0 1 29.1,15.8 Z" style="fill:#cddff0"/>
  <path d="M 16.35,3.05 A 12.75,12.75 0 0 0 3.6,15.8 12.75,12.75 0 0 0 3.6161,16.235 12.75,12.75 0 0 1 16.3501,3.8 12.75,12.75 0 0 1 29.0841,16.115 12.75,12.75 0 0 0 29.1001,15.8 12.75,12.75 0 0 0 16.3501,3.05 Z" style="opacity:0.2;fill:#ffffff"/>
  <path d="M 24.227,27.588 C 17.412,31.524 8.697,29.188 4.761,22.373 0.8265,15.557 3.1617,6.842 9.9774,2.907 c 8.0306,-0.0371 13.13,17.316 14.25,24.681 z" style="fill:#62b4e7"/>
  <path d="M 30.6,15.75 C 30.6,23.62 24.22,30 16.35,30 8.4799,30 2.1,23.62 2.1,15.75 c 3.9835,-6.9734 21.562,-2.713 28.5,0 z" style="fill:#357dc5"/>
  <path d="M 2.1469,16.678 C 2.1321,16.703 2.1144,16.725 2.1,16.75 2.1,24.62 8.4799,31 16.35,31 24.2201,31 30.6,24.6201 30.6,16.75 c -0.01527,-0.006 -0.0354,-0.01159 -0.05078,-0.01758 -0.507,7.41 -6.661,13.268 -14.199,13.268 -7.5569,0 -13.723,-5.887 -14.203,-13.322 z" style="opacity:0.2"/>
 </g>
</svg>
